X:163
T: Piros alma csumája...
M: 4/4
L: 1/4
K: F
GGgg | gdc2 | 
dgdB | dcG2 | 
ddcB | dcG2 | 
FFBc | GGG2 | 

